static/icons/ico-description.svg

<svg xmlns="http://www.w3.org/2000/svg" viewBox="0 0 24 24">
  <path d="M2,17v-2h5v2H2ZM2,13v-2h20v2H2ZM2,9v-2h12v2H2Z" fill="#8492c2"/>
</svg>

<svg xmlns="http://www.w3.org/2000/svg" viewBox="0 0 24 24">
  <path d="M2,17V15H7v2Zm0-4V11H22v2ZM2,9V7H14V9Z" fill="#8f9dc9"/>
</svg>
